lib/brands/icons/squarespace.svg

<svg xmlns="http://www.w3.org/2000/svg" fill="none" aria-hidden="true" viewBox="0 0 48 48"><g id="squarespace-Icon"><path id="Vector" fill="#1A1918" d="M28.9122 15.4036C28.2339 14.7253 27.1341 14.7253 26.4563 15.4036L15.4036 26.4566C14.0464 27.8127 11.8475 27.8127 10.4914 26.4566C9.13387 25.1001 9.13387 22.9009 10.4914 21.5437L21.3313 10.7038C19.9749 9.34695 17.7753 9.34695 16.4188 10.7038L8.03444 19.0878C5.32185 21.8011 5.32185 26.1992 8.03444 28.9129C10.7477 31.6262 15.1458 31.6262 17.8592 28.9129L28.9122 17.8598C29.5901 17.1816 29.5901 16.0818 28.9122 15.4036ZM32.5964 11.7197C29.8831 9.00603 25.485 9.00603 22.7717 11.7197L11.719 22.772C11.0411 23.4499 11.0411 24.5504 11.719 25.2283C12.3973 25.9065 13.4967 25.9065 14.1749 25.2283L25.2283 14.176C26.5848 12.8191 28.7837 12.8191 30.1398 14.176C30.8187 14.8538 31.9182 14.8538 32.5964 14.176C33.2746 13.497 33.2746 12.3979 32.5964 11.7197ZM36.281 22.772C35.6027 22.0945 34.5026 22.0945 33.8244 22.772L22.7717 33.8247C21.4152 35.1811 19.2156 35.1811 17.8592 33.8247C17.1813 33.1468 16.0818 33.1468 15.4036 33.8247C14.7243 34.5033 14.7243 35.6031 15.4036 36.2806C18.1158 38.9939 22.515 38.9939 25.2283 36.2806L36.281 25.2283C36.9589 24.5504 36.9589 23.4499 36.281 22.772ZM39.9656 19.0881C37.2523 16.3752 32.8534 16.3752 30.1408 19.0881L19.0875 30.1412C18.4092 30.8187 18.4092 31.9192 19.0875 32.5971C19.7661 33.2757 20.8659 33.2757 21.5437 32.5971L32.5964 21.5444C33.9525 20.1876 36.1525 20.1876 37.5086 21.5444C38.865 22.9009 38.865 25.1001 37.5086 26.4566L26.6687 37.2969C28.0251 38.653 30.2236 38.653 31.5812 37.2969L39.9656 28.9129C42.6781 26.1992 42.6781 21.8011 39.9656 19.0881Z"/></g></svg>

<svg xmlns="http://www.w3.org/2000/svg" fill="none" aria-hidden="true" viewBox="0 0 48 48"><path fill="#1A1918" d="M28.912 15.404a1.736 1.736 0 0 0-2.456 0L15.404 26.457a3.474 3.474 0 0 1-4.913-4.913l10.84-10.84a3.473 3.473 0 0 0-4.912 0l-8.385 8.384a6.948 6.948 0 0 0 9.825 9.825L28.912 17.86a1.737 1.737 0 0 0 0-2.456Zm3.684-3.684a6.946 6.946 0 0 0-9.824 0L11.719 22.772a1.738 1.738 0 0 0 2.456 2.456l11.053-11.052a3.472 3.472 0 0 1 4.912 0 1.738 1.738 0 0 0 2.456-2.456Zm3.685 11.052a1.739 1.739 0 0 0-2.457 0L22.772 33.825a3.474 3.474 0 0 1-4.913 0 1.737 1.737 0 0 0-2.455 2.456 6.947 6.947 0 0 0 9.824 0l11.053-11.053a1.738 1.738 0 0 0 0-2.456Zm3.685-3.684a6.947 6.947 0 0 0-9.825 0L19.088 30.141a1.736 1.736 0 1 0 2.456 2.456l11.052-11.053a3.473 3.473 0 1 1 4.913 4.913l-10.84 10.84a3.474 3.474 0 0 0 4.912 0l8.385-8.384a6.948 6.948 0 0 0 0-9.825Z"/></svg>
